!!!OTL: SCHOENSTER HERR JESU
!!!ARE: Europa, Mitteleuropa, Deutschland, Westfalen
!!!SCT: E2009
!!!YEM: Copyright 1995, estate of Helmut Schaffrath.
**kern
*ICvox
*Ivox
*M4/4
*k[]
*a:
=1
{4ee
8a
8b
4g#
4g#
=2
8a
8b
8ccn
8dd
4ee
4ee}
=3
{4ggn
4ccn
8dd
8ee
8ffn
8ee
=4
4.dd
8ccn
2ccn}
=5
{4ee
8dd
8ccn
4dd
4dd
=6
4ffn
8ee
8dd
4ee
4ee}
=7
{4g#
4a
4e
8ccn
8dd
=8
4.b
8a
2a}
=9
{4ee
8dd
8ccn
4dd
4dd
=10
4ffn
8ee
8dd
4ee
4ee}
=11
{4g#
4a
4e
8ccn
8dd
=12
4.b
8a
2a}
==
!!!AGN: geistlich, Gebet, Jesus - Lied
!!!ONB: ESAC (Essen Associative Code) Database: ERK3
!!!AMT: simple quadruple
!!!AIN: vox
!!!EED: Helmut Schaffrath
!!!EEV: 1.0
*-
